X:1
T:James Gibb editions
T:Saviour! Thy dying love - Barnby
%%score [ ( 1 2 ) ( 3 4 ) ]
L:1/8
Q:1/4=90
M:3/4
K:Eb
V:1 treble nm="Midi_74"
V:2 treble 
V:3 bass nm="Midi_74"
V:4 bass 
V:1
"^Winterton (64. 64. 66. 64)""^Saviour! Thy dying love""^Joseph Barnby\n(1838-96)""^Sylvanus Dryden Phelps\n(1816-95)" B2 c2 d2 | %1
 e3 G G2 || c2 F2 A2 | G6 || B2 c2 d2 | e3 G G2 || G2 F2 c2 | B6 ||[M:3/4] F2 F2 G2 | %9
 B3 A"^1" A2 || G2 G2 A2 | c3 B B2 | e2 c2 B2 | A3 G F2 | B2 G2"^1" F2 | E6 || A6 | G6 |] %18
V:2
 G2 G2 F2 | E3 E E2 || E2 E2 D2 | E6 || G2 G2 F2 | E3 E E2 || E2 E2 E2 | D6 ||[M:3/4] D2 D2 E2 | %9
 D3 D D2 || E2 E2 E2 | E3 G G2 | A2 C2 _D2 | C3 C C2 | E2 E2 D2 | E6 || E6 | E6 |] %18
V:3
 B,2 B,2 A,2 | G,3 C C2 || F,2 C2 B,2 | B,6 || B,2 B,2 A,2 | G,3 C C2 || B,2 =A,2 F,2 | F,6 || %8
[M:3/4]"^1 Saviour, Thy dying love\nThou gavest me,\nNor should I aught withhold,\nDear Lord, from Thee:\nIn love my soul would bow,\nMy heart fulfil its vow,\nSome off'ring bring Thee now,\nSomething for Thee.\n\n2 At the blest mercy seat,\nPleading for me,\nMy feeble faith looks up,\nJesus, to Thee:\nHelp me the cross to bear,\nThy wondrous love declare,\nSome song to raise, or pray'r,\nSomething for Thee." B,2 B,2 B,2 | %9
 B,3 B, B,2 || B,2 E2 E2 | _D3 D D2 | %12
"^3 Give me a faithful heart,\nLikeness to Thee,\nThat each departing day\nHenceforth may see\nSome work of love begun,\nSome deed of kindness done,\nSome wand'rer sought and won,\nSomething for Thee.\n\n4 All that I am and have,\nThy gifts so free,\nIn joy, in grief, thro' life,\nDear Lord, for Thee!\nAnd when Thy face I see,\nMy ransom'd soul shall be,\nThro' all eternity,\nSomething for Thee." C2 E,2 =E,2 | %13
 F,3 G, A,2 | G,2 B,2 A,2 | G,6 || C6 | B,6 |] %18
V:4
 E,2 E,2 =B,,2 | C,3 C, C,2 || A,,2 A,,2 B,,2 | E,6 || E,2 E,2 =B,,2 | C,3 C, C,2 || F,2 F,2 F,2 | %7
 B,,6 ||[M:3/4] B,2 A,2 G,2 | F,3 B,, B,,2 || E,2 E,2 F,2 | G,3 E, E,2 | A,,2 A,,2 A,,2 | %13
 A,,3 A,, A,,2 | B,,2 B,,2 B,,2 | E,6 || A,,6 | E,6 |] %18

